flaticon/outdoor/mountain.svg

<svg xmlns="http://www.w3.org/2000/svg" width="32" height="32" viewBox="0 0 24 24">
    <path d="M23.945312 21.925781L18.074219 10.71875 14.824219 4.511719 9.03125 15.566406 8.277344 14.65625C7.824219 14.105469 7.15625 13.8125 6.441406 13.851562 5.726562 13.890625 5.09375 14.257812 4.707031 14.855469L.0703125 21.960938C-.015625 22.09375-.0234375 22.265625.0507812 22.410156L.195312 22.636719 23.511719 22.636719C23.683594 22.636719 23.839844 22.550781 23.929688 22.402344 24.019531 22.253906 24.023438 22.078125 23.945312 21.925781zM14.824219 6.242188L17.089844 10.570312 16.429688 11.230469 15.625 10.429688 14.824219 11.230469 14.019531 10.429688 13.21875 11.230469 12.554688 10.570312zM1.113281 21.835938L5.378906 15.292969C5.628906 14.914062 6.03125 14.679688 6.484375 14.652344 6.941406 14.628906 7.367188 14.816406 7.660156 15.167969L8.628906 16.339844 7.789062 17.9375 5.75 21.835938zM12.011719 21.835938L12.011719 20.488281C12.675781 21.308594 13.6875 21.835938 14.824219 21.835938 15.957031 21.835938 16.96875 21.308594 17.632812 20.488281L17.632812 21.835938zM21.246094 21.835938L18.4375 21.835938 18.4375 20.488281C19.097656 21.308594 20.113281 21.835938 21.246094 21.835938 21.46875 21.835938 21.648438 21.65625 21.648438 21.433594 21.648438 21.210938 21.46875 21.03125 21.246094 21.03125 19.828125 21.03125 18.65625 19.976562 18.464844 18.609375 18.972656 19.113281 19.671875 19.425781 20.441406 19.425781 20.664062 19.425781 20.84375 19.246094 20.84375 19.023438 20.84375 18.804688 20.664062 18.625 20.441406 18.625 19.335938 18.625 18.4375 17.722656 18.4375 16.617188L18.4375 16.605469C18.773438 16.859375 19.1875 17.019531 19.640625 17.019531 19.863281 17.019531 20.042969 16.839844 20.042969 16.617188 20.042969 16.394531 19.863281 16.214844 19.640625 16.214844 18.976562 16.214844 18.4375 15.675781 18.4375 15.011719 18.4375 14.789062 18.257812 14.609375 18.035156 14.609375 17.8125 14.609375 17.632812 14.789062 17.632812 15.011719 17.632812 15.675781 17.09375 16.214844 16.429688 16.214844 16.207031 16.214844 16.027344 16.394531 16.027344 16.617188 16.027344 16.839844 16.207031 17.019531 16.429688 17.019531 16.882812 17.019531 17.296875 16.859375 17.632812 16.605469L17.632812 16.617188C17.632812 17.722656 16.734375 18.625 15.625 18.625 15.402344 18.625 15.222656 18.804688 15.222656 19.023438 15.222656 19.246094 15.402344 19.425781 15.625 19.425781 16.394531 19.425781 17.09375 19.113281 17.601562 18.609375 17.414062 19.976562 16.242188 21.03125 14.824219 21.03125 13.40625 21.03125 12.234375 19.976562 12.042969 18.609375 12.550781 19.113281 13.25 19.425781 14.019531 19.425781 14.242188 19.425781 14.421875 19.246094 14.421875 19.023438 14.421875 18.804688 14.242188 18.625 14.019531 18.625 12.914062 18.625 12.011719 17.722656 12.011719 16.617188L12.011719 16.605469C12.347656 16.859375 12.761719 17.019531 13.21875 17.019531 13.4375 17.019531 13.617188 16.839844 13.617188 16.617188 13.617188 16.394531 13.4375 16.214844 13.21875 16.214844 12.554688 16.214844 12.011719 15.675781 12.011719 15.011719 12.011719 14.789062 11.832031 14.609375 11.613281 14.609375 11.390625 14.609375 11.210938 14.789062 11.210938 15.011719 11.210938 15.675781 10.667969 16.214844 10.003906 16.214844 9.785156 16.214844 9.605469 16.394531 9.605469 16.617188 9.605469 16.839844 9.785156 17.019531 10.003906 17.019531 10.460938 17.019531 10.875 16.859375 11.210938 16.605469L11.210938 16.617188C11.210938 17.722656 10.308594 18.625 9.203125 18.625 8.980469 18.625 8.800781 18.804688 8.800781 19.023438 8.800781 19.246094 8.980469 19.425781 9.203125 19.425781 9.972656 19.425781 10.671875 19.113281 11.179688 18.609375 10.988281 19.976562 9.816406 21.03125 8.398438 21.03125 8.179688 21.03125 8 21.210938 8 21.433594 8 21.65625 8.179688 21.835938 8.398438 21.835938 9.535156 21.835938 10.546875 21.308594 11.210938 20.488281L11.210938 21.835938 6.65625 21.835938 12.164062 11.316406 13.21875 12.367188 14.019531 11.5625 14.824219 12.367188 15.625 11.5625 16.429688 12.367188 17.480469 11.316406 22.992188 21.835938zM5.1875 7.785156C6.960938 7.785156 8.398438 6.34375 8.398438 4.574219 8.398438 2.804688 6.960938 1.363281 5.1875 1.363281 3.417969 1.363281 1.976562 2.804688 1.976562 4.574219 1.976562 6.34375 3.417969 7.785156 5.1875 7.785156zM5.1875 2.164062C6.515625 2.164062 7.597656 3.246094 7.597656 4.574219 7.597656 5.902344 6.515625 6.980469 5.1875 6.980469 3.859375 6.980469 2.78125 5.902344 2.78125 4.574219 2.78125 3.246094 3.859375 2.164062 5.1875 2.164062zM18.4375 5.777344C19.410156 5.777344 20.203125 6.570312 20.203125 7.542969 20.203125 7.765625 20.382812 7.945312 20.601562 7.945312 20.824219 7.945312 21.003906 7.765625 21.003906 7.542969 21.003906 6.96875 21.472656 6.5 22.046875 6.5 22.269531 6.5 22.449219 6.320312 22.449219 6.097656 22.449219 5.875 22.269531 5.695312 22.046875 5.695312 21.507812 5.695312 21.023438 5.933594 20.6875 6.308594 20.25 5.515625 19.40625 4.976562 18.4375 4.976562 18.214844 4.976562 18.035156 5.15625 18.035156 5.375 18.035156 5.597656 18.214844 5.777344 18.4375 5.777344zM18.4375 5.777344"/>
</svg>

<svg xmlns="http://www.w3.org/2000/svg" width="32" height="32" viewBox="0 0 24 24">
    <path d="M23.945 21.926l-5.87-11.207-3.25-6.207L9.03 15.566l-.754-.91a2.197 2.197 0 0 0-1.836-.804 2.188 2.188 0 0 0-1.734 1.003L.07 21.961a.45.45 0 0 0-.02.45l.145.226h23.317a.483.483 0 0 0 .418-.235.483.483 0 0 0 .015-.476zm-9.12-15.684l2.265 4.328-.66.66-.805-.8-.8.8-.805-.8-.801.8-.664-.66zM1.112 21.836l4.266-6.543a1.416 1.416 0 0 1 2.281-.125l.969 1.172-.84 1.598-2.039 3.898zm10.899 0v-1.348a3.61 3.61 0 0 0 2.812 1.348 3.609 3.609 0 0 0 2.809-1.348v1.348zm9.234 0h-2.808v-1.348a3.603 3.603 0 0 0 2.808 1.348.402.402 0 1 0 0-.805 2.813 2.813 0 0 1-2.781-2.422 2.8 2.8 0 0 0 1.976.817.401.401 0 0 0 0-.8 2.009 2.009 0 0 1-2.004-2.009v-.012c.336.254.75.415 1.204.415a.402.402 0 1 0 0-.805c-.664 0-1.203-.54-1.203-1.203a.402.402 0 1 0-.805 0c0 .664-.54 1.203-1.203 1.203a.402.402 0 1 0 0 .805c.453 0 .867-.16 1.203-.415v.012a2.01 2.01 0 0 1-2.008 2.008.401.401 0 1 0 0 .8 2.8 2.8 0 0 0 1.977-.816 2.806 2.806 0 0 1-2.778 2.422 2.813 2.813 0 0 1-2.781-2.422 2.8 2.8 0 0 0 1.977.817.401.401 0 0 0 0-.8 2.012 2.012 0 0 1-2.008-2.009v-.012c.336.254.75.415 1.207.415.219 0 .398-.18.398-.403a.401.401 0 0 0-.398-.402c-.664 0-1.207-.54-1.207-1.203a.401.401 0 1 0-.801 0c0 .664-.543 1.203-1.207 1.203a.401.401 0 0 0-.399.402c0 .223.18.403.399.403.457 0 .871-.16 1.207-.415v.012a2.012 2.012 0 0 1-2.008 2.008.401.401 0 1 0 0 .8 2.8 2.8 0 0 0 1.977-.816 2.813 2.813 0 0 1-2.782 2.422.401.401 0 0 0-.398.403c0 .222.18.402.398.402a3.61 3.61 0 0 0 2.813-1.348v1.348H6.656l5.508-10.52 1.055 1.051.8-.805.805.805.801-.805.805.805 1.05-1.05 5.512 10.519zm0 0M5.188 7.785a3.213 3.213 0 0 0 3.21-3.21c0-1.77-1.437-3.212-3.21-3.212a3.216 3.216 0 0 0-3.211 3.211c0 1.77 1.441 3.211 3.21 3.211zm0-5.62a2.414 2.414 0 0 1 2.41 2.41 2.407 2.407 0 1 1-2.41-2.41zm0 0M18.438 5.777c.972 0 1.765.793 1.765 1.766a.401.401 0 1 0 .8 0c0-.574.47-1.043 1.044-1.043a.402.402 0 1 0 0-.805c-.54 0-1.024.239-1.36.614a2.57 2.57 0 0 0-2.25-1.332.401.401 0 1 0 0 .8zm0 0"/>
</svg>
